src/images/svg/symbols/markets-stocks-and-indices/american-stocks/stocks-fedex.svg

<svg width="32" height="32" viewBox="0 0 32 32" fill="none" xmlns="http://www.w3.org/2000/svg">
<path d="M0 16C0 7.16344 7.16344 0 16 0C24.8366 0 32 7.16344 32 16C32 24.8366 24.8366 32 16 32C7.16344 32 0 24.8366 0 16Z" fill="#4D148C"/>
<path fill-rule="evenodd" clip-rule="evenodd" d="M24.8936 18.2926L25.8766 19.3951H27.9998L25.9781 17.1342L27.9721 14.8917H25.9317L24.9762 15.9857L23.9832 14.8917H21.8688H19.5994V13.8821H21.8688V12.3008H17.9316V19.3951H21.8688H23.9192L24.8936 18.2926ZM23.8727 17.1437L21.8688 19.3951V17.8098H19.5994V16.4133H21.8688V14.8917L23.8727 17.1437Z" fill="#FF5A00"/>
<path d="M16.2703 12.3008V15.2041H16.2518C15.8841 14.7815 15.4245 14.6343 14.8916 14.6343C13.7996 14.6343 12.977 15.3771 12.6882 16.3585C12.3588 15.277 11.5094 14.614 10.2502 14.614C9.22738 14.614 8.41998 15.0729 7.9982 15.821V14.8915H5.88432V13.8822H8.19142V12.3011H4V19.3951H5.88432V16.4133H7.76251C7.70466 16.6426 7.67574 16.8782 7.67643 17.1147C7.67643 18.5938 8.80676 19.6332 10.2499 19.6332C11.463 19.6332 12.2631 19.0632 12.6859 18.0254H11.0709C10.8526 18.3377 10.6868 18.4299 10.2501 18.4299C9.74387 18.4299 9.30699 17.9881 9.30699 17.465H12.5953C12.738 18.6401 13.6535 19.6533 14.91 19.6533C15.4521 19.6533 15.9483 19.3868 16.2517 18.9365H16.2699V19.3961H17.9313V12.3011H16.2703V12.3008ZM9.3594 16.4345C9.46439 15.9837 9.81386 15.6891 10.2501 15.6891C10.7304 15.6891 11.0621 15.9746 11.1492 16.4345H9.3594ZM15.262 18.3155C14.6498 18.3155 14.2693 17.7451 14.2693 17.1493C14.2693 16.5124 14.6004 15.9006 15.262 15.9006C15.9485 15.9006 16.222 16.5128 16.222 17.1493C16.222 17.7527 15.9324 18.3155 15.262 18.3155Z" fill="white"/>
</svg>

<svg width="32" height="32" fill="none" xmlns="http://www.w3.org/2000/svg"><path d="M0 16C0 7.163 7.163 0 16 0s16 7.163 16 16-7.163 16-16 16S0 24.837 0 16Z" fill="#4D148C"/><path fill-rule="evenodd" clip-rule="evenodd" d="m24.894 18.293.983 1.102H28l-2.022-2.26 1.994-2.243h-2.04l-.956 1.094-.993-1.094H19.6v-1.01h2.27v-1.581h-3.937v7.094h5.987l.975-1.102Zm-1.021-1.15-2.004 2.252V17.81h-2.27v-1.397h2.27v-1.521l2.004 2.252Z" fill="#FF5A00"/><path d="M16.27 12.3v2.904h-.018c-.368-.423-.827-.57-1.36-.57-1.092 0-1.915.743-2.204 1.724-.33-1.081-1.179-1.744-2.438-1.744-1.023 0-1.83.459-2.252 1.207v-.93H5.884v-1.009h2.307v-1.58H4v7.093h1.884v-2.982h1.879c-.058.23-.087.465-.087.702 0 1.479 1.13 2.518 2.574 2.518 1.213 0 2.013-.57 2.436-1.608H11.07c-.218.313-.384.405-.82.405-.507 0-.944-.442-.944-.965h3.288c.143 1.175 1.058 2.188 2.315 2.188.542 0 1.038-.266 1.342-.716h.018v.46h1.661V12.3h-1.66Zm-6.91 4.134c.104-.45.454-.745.89-.745.48 0 .812.286.9.745H9.36Zm5.902 1.881c-.612 0-.993-.57-.993-1.166 0-.637.331-1.248.993-1.248.686 0 .96.612.96 1.248 0 .604-.29 1.166-.96 1.166Z" fill="#fff"/></svg>
